X:17962
T:Una vez dixiste que s
R:Xiraldilla
C:Tradicional
S:Msica Tradicional Asturiana, (C) Tello & Tito. Asturies, 2001.
S:http://pagina.de/MusTradAst <telloytito@asturies.org>
A:Asturies
Z:Les cuarenta principales
M:2/4
L:1/8
Q:1/4=128
K:C
|: E2 E2|E2 FG|A2 A2|G4|E2 G2|G2 FE|F2 F2|[1 E4 :|[2 E2 GG|
|A2 A2|G2 EE|F2 F2|E2 GG|AA BA|G2 EG|FF GG|E4|
[Q:1/4=80]
|F2 G2|A4|F2 G2|A4|A2 A2|A2 A2|G4|
[Q:1/4=128]
|GG GG|c4-|c4|
